X: 15146
T: Gigue Canadienne
R: reel
M: 4/4
K: Gmajor
dc|:B2GB cAFA|d^cde dBGB|DFAB cBcB|AGFE DB,DG|B2B2 cBce|
dBge dBGB|DFAB cAFG|1 A2G2 G2dc:|2 A2G2 G2ga||
|:bgfg dega|bgfg dega|ba^ga ea^ga|ba^ga ef=ga|bgfg dega|
bgfg defg|(3aba (3gag (3fgf (3efe|1 defe g2ga:|2 defe g2G2||

